logos/spykes.svg

<svg xmlns="http://www.w3.org/2000/svg" width="2148" height="800" style="shape-rendering:geometricPrecision;text-rendering:geometricPrecision;image-rendering:optimizeQuality;fill-rule:evenodd;clip-rule:evenodd"><path style="opacity:1" fill="#fefefe" d="M-.5-.5h2148v800H-.5V-.5z"/><path style="opacity:1" fill="#5a5757" d="M574.5 67.5v1h-3v274h-1v-275h4z"/><path style="opacity:1" fill="#221f1f" d="M574.5 68.5v274h-3v-274h3z"/><path style="opacity:1" fill="#918f8f" d="M574.5 67.5c.999 91.832 1.333 183.832 1 276-1.915.284-3.581-.049-5-1h4v-275z"/><path style="opacity:1" fill="#5a5757" d="M603.5 67.5v1h-3v274h-1v-275h4z"/><path style="opacity:1" fill="#221f1f" d="M603.5 68.5v274h-3v-274h3z"/><path style="opacity:1" fill="#918f8f" d="M603.5 67.5c.999 91.832 1.333 183.832 1 276-1.915.284-3.581-.049-5-1h4v-275z"/><path style="opacity:1" fill="#6c6969" d="M679.5 342.5a18908.39 18908.39 0 0 1-1-275h5v276c-1.599.268-2.932-.066-4-1z"/><path style="opacity:1" fill="#221f1f" d="M679.5 342.5v-274h3v274h-3z"/><path style="opacity:1" fill="#231f20" d="M687.5 67.5h4v275h-4v-275z"/><path style="opacity:1" fill="#6c6969" d="M854.5 342.5a18908.39 18908.39 0 0 1-1-275h5v276c-1.599.268-2.932-.066-4-1z"/><path style="opacity:1" fill="#221f1f" d="M854.5 342.5v-274h3v274h-3z"/><path style="opacity:1" fill="#231f20" d="M958.5 67.5h4v275h-4v-275zM1291.5 67.5h4v275h-4v-275zM1308.5 67.5h4v275h-4v-275zM1316.5 67.5h4v275h-4v-275zM1533.5 67.5h4v275h-4v-275zM1637.5 67.5h4v275h-4v-275zM1737.5 67.5h4v275h-4v-275zM1758.5 67.5h4v275h-4v-275z"/><path style="opacity:1" fill="#2b2728" d="M286.5 151.5h175v4h-173v150h75v4h-152v-4h73a3006.1 3006.1 0 0 1 2-154z"/><path style="opacity:1" fill="#ddb260" d="M226.5 344.5h119a85999.58 85999.58 0 0 0-54 378h-4a37166.816 37166.816 0 0 0-61-378z"/><path style="opacity:1" fill="#242021" d="M1208.5 568.5h13c.33-59.169 0-118.169-1-177-5.34.166-10.68-.001-16-.5-11.23.055-15.73-5.445-13.5-16.5 1.17-3.833 3.67-6.333 7.5-7.5a462.27 462.27 0 0 1 43 0c2.35.346 4.18 1.513 5.5 3.5.33 42 .67 84 1 126 16.17-13.5 32.33-27 48.5-40.5-3.91-2.032-7.07-4.866-9.5-8.5-2.22-7.782.61-12.616 8.5-14.5a840.83 840.83 0 0 1 58 0c6.86 2.549 9.36 7.383 7.5 14.5-1.78 4.824-5.28 7.658-10.5 8.5-14.71.678-27.71 5.678-39 15a414.63 414.63 0 0 0-29 26.5c21.85 23.35 43.52 46.85 65 70.5 8.08.098 16.08.765 24 2 3.47 2.525 5.13 6.025 5 10.5-.02 6.221-3.02 10.054-9 11.5-20 .667-40 .667-60 0-5.76-2.682-7.92-7.182-6.5-13.5 2.43-5.479 6.6-8.979 12.5-10.5a1976.23 1976.23 0 0 0-50.5-55.5 265.392 265.392 0 0 0-14.5 13c-.83 19.325-1.33 38.658-1.5 58-1.1 3.722-3.27 6.556-6.5 8.5-14.76.966-29.43.633-44-1-4.52-4.572-6.02-10.072-4.5-16.5 4.16-5.225 9.66-7.225 16.5-6z"/><path style="opacity:1" fill="#c4c3c3" d="M1220.5 391.5c1 58.831 1.33 117.831 1 177h-13c3.8-.983 7.8-1.317 12-1v-176z"/><path style="opacity:1" fill="#242021" d="M619.5 428.5c8.007-.166 16.007 0 24 .5a479.484 479.484 0 0 1 33.5 6.5 56.214 56.214 0 0 0 12.5-5.5c8.267-2.378 13.767.456 16.5 8.5a306.347 306.347 0 0 1 0 35c-2.248 10.207-8.082 13.041-17.5 8.5a220.438 220.438 0 0 0-26-24c-16.367-7.912-33.367-9.578-51-5-15.771 6.03-20.938 16.864-15.5 32.5a25.568 25.568 0 0 0 8.5 6.5 189.805 189.805 0 0 0 17 3 528.6 528.6 0 0 1 57 5c27.848 6.527 40.348 24.027 37.5 52.5-4.037 20.043-15.87 33.21-35.5 39.5-17.397 4.777-35.064 5.777-53 3a478.766 478.766 0 0 1-30-5.5 96.14 96.14 0 0 0-12 5.5c-4.694 1.932-9.361 1.932-14 0a36.078 36.078 0 0 1-3.5-4.5 310.916 310.916 0 0 1-1-49 17.842 17.842 0 0 1 4.5-5.5c4.456-.867 8.789-.534 13 1a154.043 154.043 0 0 1 10.5 17.5c17.082 15.693 37.248 22.193 60.5 19.5 10.152-.997 18.986-4.831 26.5-11.5 5.554-7.592 6.887-15.925 4-25-2.222-3.888-5.388-6.721-9.5-8.5a57.931 57.931 0 0 0-16-4l-38-1c-14.626-.542-27.959-4.876-40-13-15.236-13.806-19.736-30.639-13.5-50.5 5.229-12.228 14.062-20.728 26.5-25.5a233.44 233.44 0 0 1 24-6.5z"/><path style="opacity:1" fill="#ddb260" d="M856.5 428.5c32.4-2.709 58.567 8.624 78.5 34 15.242 25.78 17.576 52.78 7 81-17.402 36.291-46.236 52.124-86.5 47.5-12.396-1.574-23.563-6.074-33.5-13.5-.5 15.33-.667 30.663-.5 46 10.339-.166 20.672 0 31 .5 6.4 1.399 10.566 5.233 12.5 11.5 1.948 8.515.114 16.015-5.5 22.5a35.716 35.716 0 0 1-9 3c-30 .667-60 .667-90 0-9.213-2.906-13.213-9.239-12-19-.743-9.243 3.257-15.243 12-18 6.325-.5 12.658-.666 19-.5v-153c-10.696 1.577-17.529-2.756-20.5-13-1.061-6.224-.394-12.224 2-18 3.016-3.592 6.849-5.758 11.5-6.5a361.07 361.07 0 0 1 38 0c2.348.346 4.181 1.513 5.5 3.5l1 15c10.116-12.958 23.283-20.625 39.5-23z"/><path style="opacity:1" fill="#242021" d="M1481.5 428.5c34.68-3.565 62.84 8.102 84.5 35 9.07 14.022 13.07 29.355 12 46-1.24 6.883-5.41 10.383-12.5 10.5-44 .5-88 .667-132 .5 2.59 30.758 19.26 47.925 50 51.5 14.46 1.173 28.46-.827 42-6a340.647 340.647 0 0 1 40-15.5c11.51 2.681 14.67 9.348 9.5 20-7.13 6.484-15.29 11.318-24.5 14.5-25.4 10.23-51.74 13.897-79 11-37.88-7.216-60.38-29.716-67.5-67.5-5.47-43.569 11.36-74.736 50.5-93.5 8.88-3.304 17.88-5.471 27-6.5zM1684.5 428.5c10.04-.213 20.04.287 30 1.5 8.07 1.647 16.07 3.48 24 5.5a412.738 412.738 0 0 1 18.5-6c6.71.038 10.71 3.371 12 10 .67 10.333.67 20.667 0 31-.77 12.156-6.6 15.99-17.5 11.5-6.28-6.279-12.61-12.613-19-19-18.06-12.288-37.73-15.622-59-10-14.67 5.844-19.84 16.344-15.5 31.5 4.22 5.36 9.72 8.527 16.5 9.5 18.64 1.761 37.3 3.094 56 4 15.24 1.403 28.4 7.236 39.5 17.5 11.43 17.363 12.43 35.363 3 54-8.07 12.127-19.23 19.961-33.5 23.5-13.48 3.276-27.15 4.276-41 3a446.913 446.913 0 0 1-38.5-6.5 36.562 36.562 0 0 0-11.5 5.5c-10.18 4.162-16.68.995-19.5-9.5-.67-14-.67-28 0-42 2.91-7.651 8.41-10.151 16.5-7.5a4.473 4.473 0 0 0 2 1.5c9.87 21.95 26.87 34.117 51 36.5 14.45 2.091 28.12-.242 41-7 11.81-9.39 13.97-20.557 6.5-33.5-6.64-4.878-14.14-7.712-22.5-8.5l-38-1c-18.42-.468-34.26-6.968-47.5-19.5-8.05-11.787-10.72-24.787-8-39 5.05-15.382 15.21-25.882 30.5-31.5a307.018 307.018 0 0 1 24-5.5z"/><path style="opacity:1" fill="#ddb260" d="M984.5 432.5c19.34-.167 38.67 0 58 .5 10.76 1.758 16.09 8.091 16 19 .18 7.875-3.16 13.542-10 17-3.97.942-7.97 1.775-12 2.5a3418.866 3418.866 0 0 1 30.5 72 3541.036 3541.036 0 0 0 32.5-72c-14.48.291-21.48-6.709-21-21-.7-10.101 3.97-15.934 14-17.5 18-.667 36-.667 54 0 11 .997 16.33 6.997 16 18 .68 6.968-1.65 12.635-7 17a71.215 71.215 0 0 1-15 3.5 46121.179 46121.179 0 0 1-71 151.5l17 1c11.28 3.839 15.45 11.672 12.5 23.5-1.16 7.824-5.66 12.324-13.5 13.5-31.33.667-62.67.667-94 0-8.939-3.087-12.939-9.42-12-19-.648-9.675 3.686-15.675 13-18a649.65 649.65 0 0 0 36-1.5c5.33-11.333 10.67-22.667 16-34a9130.998 9130.998 0 0 0-52-117c-18.196-.709-25.363-10.042-21.5-28 2.616-6.128 7.116-9.794 13.5-11z"/><path style="opacity:1" fill="#fdfdfd" d="M1480.5 452.5c24.15-3.572 43.65 4.094 58.5 23a61.203 61.203 0 0 1 7.5 21 3137.2 3137.2 0 0 1-112 1c6.11-24.441 21.44-39.441 46-45z"/><path style="opacity:1" fill="#fefefd" d="M853.5 465.5c26.437-1.369 41.937 10.964 46.5 37 2.434 18.707-3.399 34.207-17.5 46.5-22.26 11.618-40.427 7.118-54.5-13.5-5.243-11.788-6.909-24.121-5-37 4.209-16.702 14.376-27.702 30.5-33z"/></svg>

<?xml version="1.0" encoding="UTF-8"?>
<!DOCTYPE svg PUBLIC "-//W3C//DTD SVG 1.1//EN" "http://www.w3.org/Graphics/SVG/1.1/DTD/svg11.dtd">
<svg xmlns="http://www.w3.org/2000/svg" version="1.1" width="2148px" height="800px" style="shape-rendering:geometricPrecision; text-rendering:geometricPrecision; image-rendering:optimizeQuality; fill-rule:evenodd; clip-rule:evenodd" xmlns:xlink="http://www.w3.org/1999/xlink">
<g><path style="opacity:1" fill="#fefefe" d="M -0.5,-0.5 C 715.5,-0.5 1431.5,-0.5 2147.5,-0.5C 2147.5,266.167 2147.5,532.833 2147.5,799.5C 1431.5,799.5 715.5,799.5 -0.5,799.5C -0.5,532.833 -0.5,266.167 -0.5,-0.5 Z"/></g>
<g><path style="opacity:1" fill="#5a5757" d="M 574.5,67.5 C 574.5,67.8333 574.5,68.1667 574.5,68.5C 573.5,68.5 572.5,68.5 571.5,68.5C 571.5,159.833 571.5,251.167 571.5,342.5C 571.167,342.5 570.833,342.5 570.5,342.5C 570.5,250.833 570.5,159.167 570.5,67.5C 571.833,67.5 573.167,67.5 574.5,67.5 Z"/></g>
<g><path style="opacity:1" fill="#221f1f" d="M 574.5,68.5 C 574.5,159.833 574.5,251.167 574.5,342.5C 573.5,342.5 572.5,342.5 571.5,342.5C 571.5,251.167 571.5,159.833 571.5,68.5C 572.5,68.5 573.5,68.5 574.5,68.5 Z"/></g>
<g><path style="opacity:1" fill="#918f8f" d="M 574.5,67.5 C 575.499,159.332 575.833,251.332 575.5,343.5C 573.585,343.784 571.919,343.451 570.5,342.5C 570.833,342.5 571.167,342.5 571.5,342.5C 572.5,342.5 573.5,342.5 574.5,342.5C 574.5,251.167 574.5,159.833 574.5,68.5C 574.5,68.1667 574.5,67.8333 574.5,67.5 Z"/></g>
<g><path style="opacity:1" fill="#5a5757" d="M 603.5,67.5 C 603.5,67.8333 603.5,68.1667 603.5,68.5C 602.5,68.5 601.5,68.5 600.5,68.5C 600.5,159.833 600.5,251.167 600.5,342.5C 600.167,342.5 599.833,342.5 599.5,342.5C 599.5,250.833 599.5,159.167 599.5,67.5C 600.833,67.5 602.167,67.5 603.5,67.5 Z"/></g>
<g><path style="opacity:1" fill="#221f1f" d="M 603.5,68.5 C 603.5,159.833 603.5,251.167 603.5,342.5C 602.5,342.5 601.5,342.5 600.5,342.5C 600.5,251.167 600.5,159.833 600.5,68.5C 601.5,68.5 602.5,68.5 603.5,68.5 Z"/></g>
<g><path style="opacity:1" fill="#918f8f" d="M 603.5,67.5 C 604.499,159.332 604.833,251.332 604.5,343.5C 602.585,343.784 600.919,343.451 599.5,342.5C 599.833,342.5 600.167,342.5 600.5,342.5C 601.5,342.5 602.5,342.5 603.5,342.5C 603.5,251.167 603.5,159.833 603.5,68.5C 603.5,68.1667 603.5,67.8333 603.5,67.5 Z"/></g>
<g><path style="opacity:1" fill="#6c6969" d="M 679.5,342.5 C 678.501,251.002 678.167,159.335 678.5,67.5C 680.167,67.5 681.833,67.5 683.5,67.5C 683.5,159.5 683.5,251.5 683.5,343.5C 681.901,343.768 680.568,343.434 679.5,342.5 Z"/></g>
<g><path style="opacity:1" fill="#221f1f" d="M 679.5,342.5 C 679.5,251.167 679.5,159.833 679.5,68.5C 680.5,68.5 681.5,68.5 682.5,68.5C 682.5,159.833 682.5,251.167 682.5,342.5C 681.5,342.5 680.5,342.5 679.5,342.5 Z"/></g>
<g><path style="opacity:1" fill="#231f20" d="M 687.5,67.5 C 688.833,67.5 690.167,67.5 691.5,67.5C 691.5,159.167 691.5,250.833 691.5,342.5C 690.167,342.5 688.833,342.5 687.5,342.5C 687.5,250.833 687.5,159.167 687.5,67.5 Z"/></g>
<g><path style="opacity:1" fill="#6c6969" d="M 854.5,342.5 C 853.501,251.002 853.167,159.335 853.5,67.5C 855.167,67.5 856.833,67.5 858.5,67.5C 858.5,159.5 858.5,251.5 858.5,343.5C 856.901,343.768 855.568,343.434 854.5,342.5 Z"/></g>
<g><path style="opacity:1" fill="#221f1f" d="M 854.5,342.5 C 854.5,251.167 854.5,159.833 854.5,68.5C 855.5,68.5 856.5,68.5 857.5,68.5C 857.5,159.833 857.5,251.167 857.5,342.5C 856.5,342.5 855.5,342.5 854.5,342.5 Z"/></g>
<g><path style="opacity:1" fill="#231f20" d="M 958.5,67.5 C 959.833,67.5 961.167,67.5 962.5,67.5C 962.5,159.167 962.5,250.833 962.5,342.5C 961.167,342.5 959.833,342.5 958.5,342.5C 958.5,250.833 958.5,159.167 958.5,67.5 Z"/></g>
<g><path style="opacity:1" fill="#231f20" d="M 1291.5,67.5 C 1292.83,67.5 1294.17,67.5 1295.5,67.5C 1295.5,159.167 1295.5,250.833 1295.5,342.5C 1294.17,342.5 1292.83,342.5 1291.5,342.5C 1291.5,250.833 1291.5,159.167 1291.5,67.5 Z"/></g>
<g><path style="opacity:1" fill="#231f20" d="M 1308.5,67.5 C 1309.83,67.5 1311.17,67.5 1312.5,67.5C 1312.5,159.167 1312.5,250.833 1312.5,342.5C 1311.17,342.5 1309.83,342.5 1308.5,342.5C 1308.5,250.833 1308.5,159.167 1308.5,67.5 Z"/></g>
<g><path style="opacity:1" fill="#231f20" d="M 1316.5,67.5 C 1317.83,67.5 1319.17,67.5 1320.5,67.5C 1320.5,159.167 1320.5,250.833 1320.5,342.5C 1319.17,342.5 1317.83,342.5 1316.5,342.5C 1316.5,250.833 1316.5,159.167 1316.5,67.5 Z"/></g>
<g><path style="opacity:1" fill="#231f20" d="M 1533.5,67.5 C 1534.83,67.5 1536.17,67.5 1537.5,67.5C 1537.5,159.167 1537.5,250.833 1537.5,342.5C 1536.17,342.5 1534.83,342.5 1533.5,342.5C 1533.5,250.833 1533.5,159.167 1533.5,67.5 Z"/></g>
<g><path style="opacity:1" fill="#231f20" d="M 1637.5,67.5 C 1638.83,67.5 1640.17,67.5 1641.5,67.5C 1641.5,159.167 1641.5,250.833 1641.5,342.5C 1640.17,342.5 1638.83,342.5 1637.5,342.5C 1637.5,250.833 1637.5,159.167 1637.5,67.5 Z"/></g>
<g><path style="opacity:1" fill="#231f20" d="M 1737.5,67.5 C 1738.83,67.5 1740.17,67.5 1741.5,67.5C 1741.5,159.167 1741.5,250.833 1741.5,342.5C 1740.17,342.5 1738.83,342.5 1737.5,342.5C 1737.5,250.833 1737.5,159.167 1737.5,67.5 Z"/></g>
<g><path style="opacity:1" fill="#231f20" d="M 1758.5,67.5 C 1759.83,67.5 1761.17,67.5 1762.5,67.5C 1762.5,159.167 1762.5,250.833 1762.5,342.5C 1761.17,342.5 1759.83,342.5 1758.5,342.5C 1758.5,250.833 1758.5,159.167 1758.5,67.5 Z"/></g>
<g><path style="opacity:1" fill="#2b2728" d="M 286.5,151.5 C 344.833,151.5 403.167,151.5 461.5,151.5C 461.5,152.833 461.5,154.167 461.5,155.5C 403.833,155.5 346.167,155.5 288.5,155.5C 288.5,205.5 288.5,255.5 288.5,305.5C 313.5,305.5 338.5,305.5 363.5,305.5C 363.5,306.833 363.5,308.167 363.5,309.5C 312.833,309.5 262.167,309.5 211.5,309.5C 211.5,308.167 211.5,306.833 211.5,305.5C 235.833,305.5 260.167,305.5 284.5,305.5C 283.853,254.018 284.52,202.685 286.5,151.5 Z"/></g>
<g><path style="opacity:1" fill="#ddb260" d="M 226.5,344.5 C 266.167,344.5 305.833,344.5 345.5,344.5C 327.222,470.448 309.222,596.448 291.5,722.5C 290.167,722.5 288.833,722.5 287.5,722.5C 267.815,596.392 247.482,470.392 226.5,344.5 Z"/></g>
<g><path style="opacity:1" fill="#242021" d="M 1208.5,568.5 C 1212.83,568.5 1217.17,568.5 1221.5,568.5C 1221.83,509.331 1221.5,450.331 1220.5,391.5C 1215.16,391.666 1209.82,391.499 1204.5,391C 1193.27,391.055 1188.77,385.555 1191,374.5C 1192.17,370.667 1194.67,368.167 1198.5,367C 1212.83,366.333 1227.17,366.333 1241.5,367C 1243.85,367.346 1245.68,368.513 1247,370.5C 1247.33,412.5 1247.67,454.5 1248,496.5C 1264.17,483 1280.33,469.5 1296.5,456C 1292.59,453.968 1289.43,451.134 1287,447.5C 1284.78,439.718 1287.61,434.884 1295.5,433C 1314.83,432.333 1334.17,432.333 1353.5,433C 1360.36,435.549 1362.86,440.383 1361,447.5C 1359.22,452.324 1355.72,455.158 1350.5,456C 1335.79,456.678 1322.79,461.678 1311.5,471C 1301.41,479.376 1291.75,488.21 1282.5,497.5C 1304.35,520.85 1326.02,544.35 1347.5,568C 1355.58,568.098 1363.58,568.765 1371.5,570C 1374.97,572.525 1376.63,576.025 1376.5,580.5C 1376.48,586.721 1373.48,590.554 1367.5,592C 1347.5,592.667 1327.5,592.667 1307.5,592C 1301.74,589.318 1299.58,584.818 1301,578.5C 1303.43,573.021 1307.6,569.521 1313.5,568C 1297.04,549.201 1280.2,530.701 1263,512.5C 1258.02,516.648 1253.18,520.981 1248.5,525.5C 1247.67,544.825 1247.17,564.158 1247,583.5C 1245.9,587.222 1243.73,590.056 1240.5,592C 1225.74,592.966 1211.07,592.633 1196.5,591C 1191.98,586.428 1190.48,580.928 1192,574.5C 1196.16,569.275 1201.66,567.275 1208.5,568.5 Z"/></g>
<g><path style="opacity:1" fill="#c4c3c3" d="M 1220.5,391.5 C 1221.5,450.331 1221.83,509.331 1221.5,568.5C 1217.17,568.5 1212.83,568.5 1208.5,568.5C 1212.3,567.517 1216.3,567.183 1220.5,567.5C 1220.5,508.833 1220.5,450.167 1220.5,391.5 Z"/></g>
<g><path style="opacity:1" fill="#242021" d="M 619.5,428.5 C 627.507,428.334 635.507,428.5 643.5,429C 654.741,430.769 665.908,432.935 677,435.5C 681.332,434.2 685.499,432.367 689.5,430C 697.767,427.622 703.267,430.456 706,438.5C 706.667,450.167 706.667,461.833 706,473.5C 703.752,483.707 697.918,486.541 688.5,482C 680.434,473.264 671.767,465.264 662.5,458C 646.133,450.088 629.133,448.422 611.5,453C 595.729,459.03 590.562,469.864 596,485.5C 598.383,488.273 601.217,490.439 604.5,492C 610.122,493.258 615.789,494.258 621.5,495C 640.597,495.638 659.597,497.305 678.5,500C 706.348,506.527 718.848,524.027 716,552.5C 711.963,572.543 700.13,585.71 680.5,592C 663.103,596.777 645.436,597.777 627.5,595C 617.441,593.485 607.441,591.652 597.5,589.5C 593.432,591.032 589.432,592.865 585.5,595C 580.806,596.932 576.139,596.932 571.5,595C 570.213,593.59 569.046,592.09 568,590.5C 566.378,574.234 566.045,557.9 567,541.5C 568.122,539.376 569.622,537.543 571.5,536C 575.956,535.133 580.289,535.466 584.5,537C 588.377,542.585 591.877,548.418 595,554.5C 612.082,570.193 632.248,576.693 655.5,574C 665.652,573.003 674.486,569.169 682,562.5C 687.554,554.908 688.887,546.575 686,537.5C 683.778,533.612 680.612,530.779 676.5,529C 671.372,526.907 666.038,525.574 660.5,525C 647.833,524.667 635.167,524.333 622.5,524C 607.874,523.458 594.541,519.124 582.5,511C 567.264,497.194 562.764,480.361 569,460.5C 574.229,448.272 583.062,439.772 595.5,435C 603.507,432.374 611.507,430.207 619.5,428.5 Z"/></g>
<g><path style="opacity:1" fill="#ddb260" d="M 856.5,428.5 C 888.9,425.791 915.067,437.124 935,462.5C 950.242,488.28 952.576,515.28 942,543.5C 924.598,579.791 895.764,595.624 855.5,591C 843.104,589.426 831.937,584.926 822,577.5C 821.5,592.83 821.333,608.163 821.5,623.5C 831.839,623.334 842.172,623.5 852.5,624C 858.9,625.399 863.066,629.233 865,635.5C 866.948,644.015 865.114,651.515 859.5,658C 856.637,659.399 853.637,660.399 850.5,661C 820.5,661.667 790.5,661.667 760.5,661C 751.287,658.094 747.287,651.761 748.5,642C 747.757,632.757 751.757,626.757 760.5,624C 766.825,623.5 773.158,623.334 779.5,623.5C 779.5,572.5 779.5,521.5 779.5,470.5C 768.804,472.077 761.971,467.744 759,457.5C 757.939,451.276 758.606,445.276 761,439.5C 764.016,435.908 767.849,433.742 772.5,433C 785.167,432.333 797.833,432.333 810.5,433C 812.848,433.346 814.681,434.513 816,436.5C 816.333,441.5 816.667,446.5 817,451.5C 827.116,438.542 840.283,430.875 856.5,428.5 Z"/></g>
<g><path style="opacity:1" fill="#242021" d="M 1481.5,428.5 C 1516.18,424.935 1544.34,436.602 1566,463.5C 1575.07,477.522 1579.07,492.855 1578,509.5C 1576.76,516.383 1572.59,519.883 1565.5,520C 1521.5,520.5 1477.5,520.667 1433.5,520.5C 1436.09,551.258 1452.76,568.425 1483.5,572C 1497.96,573.173 1511.96,571.173 1525.5,566C 1538.52,559.989 1551.85,554.822 1565.5,550.5C 1577.01,553.181 1580.17,559.848 1575,570.5C 1567.87,576.984 1559.71,581.818 1550.5,585C 1525.1,595.23 1498.76,598.897 1471.5,596C 1433.62,588.784 1411.12,566.284 1404,528.5C 1398.53,484.931 1415.36,453.764 1454.5,435C 1463.38,431.696 1472.38,429.529 1481.5,428.5 Z"/></g>
<g><path style="opacity:1" fill="#242021" d="M 1684.5,428.5 C 1694.54,428.287 1704.54,428.787 1714.5,430C 1722.57,431.647 1730.57,433.48 1738.5,435.5C 1744.62,433.354 1750.79,431.354 1757,429.5C 1763.71,429.538 1767.71,432.871 1769,439.5C 1769.67,449.833 1769.67,460.167 1769,470.5C 1768.23,482.656 1762.4,486.49 1751.5,482C 1745.22,475.721 1738.89,469.387 1732.5,463C 1714.44,450.712 1694.77,447.378 1673.5,453C 1658.83,458.844 1653.66,469.344 1658,484.5C 1662.22,489.86 1667.72,493.027 1674.5,494C 1693.14,495.761 1711.8,497.094 1730.5,498C 1745.74,499.403 1758.9,505.236 1770,515.5C 1781.43,532.863 1782.43,550.863 1773,569.5C 1764.93,581.627 1753.77,589.461 1739.5,593C 1726.02,596.276 1712.35,597.276 1698.5,596C 1685.58,594.396 1672.75,592.229 1660,589.5C 1655.84,590.661 1652.01,592.495 1648.5,595C 1638.32,599.162 1631.82,595.995 1629,585.5C 1628.33,571.5 1628.33,557.5 1629,543.5C 1631.91,535.849 1637.41,533.349 1645.5,536C 1646.03,536.692 1646.69,537.192 1647.5,537.5C 1657.37,559.45 1674.37,571.617 1698.5,574C 1712.95,576.091 1726.62,573.758 1739.5,567C 1751.31,557.61 1753.47,546.443 1746,533.5C 1739.36,528.622 1731.86,525.788 1723.5,525C 1710.83,524.667 1698.17,524.333 1685.5,524C 1667.08,523.532 1651.24,517.032 1638,504.5C 1629.95,492.713 1627.28,479.713 1630,465.5C 1635.05,450.118 1645.21,439.618 1660.5,434C 1668.56,431.815 1676.56,429.982 1684.5,428.5 Z"/></g>
<g><path style="opacity:1" fill="#ddb260" d="M 984.5,432.5 C 1003.84,432.333 1023.17,432.5 1042.5,433C 1053.26,434.758 1058.59,441.091 1058.5,452C 1058.68,459.875 1055.34,465.542 1048.5,469C 1044.53,469.942 1040.53,470.775 1036.5,471.5C 1046.94,495.385 1057.11,519.385 1067,543.5C 1078.09,519.649 1088.92,495.649 1099.5,471.5C 1085.02,471.791 1078.02,464.791 1078.5,450.5C 1077.8,440.399 1082.47,434.566 1092.5,433C 1110.5,432.333 1128.5,432.333 1146.5,433C 1157.5,433.997 1162.83,439.997 1162.5,451C 1163.18,457.968 1160.85,463.635 1155.5,468C 1150.63,469.708 1145.63,470.875 1140.5,471.5C 1116.93,522.025 1093.27,572.525 1069.5,623C 1075.17,623.333 1080.83,623.667 1086.5,624C 1097.78,627.839 1101.95,635.672 1099,647.5C 1097.84,655.324 1093.34,659.824 1085.5,661C 1054.17,661.667 1022.83,661.667 991.5,661C 982.561,657.913 978.561,651.58 979.5,642C 978.852,632.325 983.186,626.325 992.5,624C 1004.51,623.833 1016.51,623.333 1028.5,622.5C 1033.83,611.167 1039.17,599.833 1044.5,588.5C 1027.44,549.382 1010.11,510.382 992.5,471.5C 974.304,470.791 967.137,461.458 971,443.5C 973.616,437.372 978.116,433.706 984.5,432.5 Z"/></g>
<g><path style="opacity:1" fill="#fdfdfd" d="M 1480.5,452.5 C 1504.65,448.928 1524.15,456.594 1539,475.5C 1542.79,482.052 1545.29,489.052 1546.5,496.5C 1509.17,497.5 1471.84,497.833 1434.5,497.5C 1440.61,473.059 1455.94,458.059 1480.5,452.5 Z"/></g>
<g><path style="opacity:1" fill="#fefefd" d="M 853.5,465.5 C 879.937,464.131 895.437,476.464 900,502.5C 902.434,521.207 896.601,536.707 882.5,549C 860.24,560.618 842.073,556.118 828,535.5C 822.757,523.712 821.091,511.379 823,498.5C 827.209,481.798 837.376,470.798 853.5,465.5 Z"/></g>
</svg>
